X: 14074
T: The PRICKLY POLKA
C: Bob McQuillen April'09
B: Bob's Note Book 14 #74
%R: polka, march
%D:2009
Z: 2020 John Chambers <jc:trillian.mit.edu>
M: C
L: 1/8
K: Em
EF \
| G2E2 EGAG | F2DE D2EF | G2B2 ABGA | B2 d4 dc |\
| B3G  A3F  | GAGE D2EF | G2B2 AGAB | G2 E4 :|
|: GB \
| d2de d2BA | GABG A2GB | d2B2 ABAG | F2 D4 Bc |\
| d2BA G2GB | ABAF D2GA | B2G2 EDEG | F2 E4 :|
%%begintext align
%% Last fall, while on
%% my way to the Bear Hug Dance Camp in Rollins, MT,
%% Judy Lungren and Rick Noll put me up at their
%% nice home in Spokane, WA. They had the most
%% wonderful cactus collection you ever saw in
%% their front yard. Thanks for the comfy bed, you guys!
%%endtext

%%sep 1 1 500

%%sep 1 1 500

